X: 42011
T: Walsh's Favourite
R: jig
M: 6/8
K: Dmixolydian
BAG A2G|FDE F2G|A2d fed|cAG FGA|
B2G A2G|FDE F2G|A2d fed|cAF G3:|
ded dcB|cdc cBA|ded fed|def g2g|
agf g2g|fed ^cde|fef d2d|cAF G3:|

